svg/file/file_code_line.svg

<?xml version="1.0" encoding="UTF-8"?>
<svg width="24px" height="24px" viewBox="0 0 24 24" version="1.1" xmlns="http://www.w3.org/2000/svg" xmlns:xlink="http://www.w3.org/1999/xlink">
    <title>file_code_line</title>
    <g id="页面-1" stroke="none" stroke-width="1" fill="none" fill-rule="evenodd">
        <g id="File" transform="translate(-624.000000, -192.000000)" fill-rule="nonzero">
            <g id="file_code_line" transform="translate(624.000000, 192.000000)">
                 <path d="M24,0 L24,24 L0,24 L0,0 L24,0 Z M12.5934901,23.257841 L12.5819402,23.2595131 L12.5108777,23.2950439 L12.4918791,23.2987469 L12.4918791,23.2987469 L12.4767152,23.2950439 L12.4056548,23.2595131 C12.3958229,23.2563662 12.3870493,23.2590235 12.3821421,23.2649074 L12.3780323,23.275831 L12.360941,23.7031097 L12.3658947,23.7234994 L12.3769048,23.7357139 L12.4804777,23.8096931 L12.4953491,23.8136134 L12.4953491,23.8136134 L12.5071152,23.8096931 L12.6106902,23.7357139 L12.6232938,23.7196733 L12.6232938,23.7196733 L12.6266527,23.7031097 L12.609561,23.275831 C12.6075724,23.2657013 12.6010112,23.2592993 12.5934901,23.257841 L12.5934901,23.257841 Z M12.8583906,23.1452862 L12.8445485,23.1473072 L12.6598443,23.2396597 L12.6498822,23.2499052 L12.6498822,23.2499052 L12.6471943,23.2611114 L12.6650943,23.6906389 L12.6699349,23.7034178 L12.6699349,23.7034178 L12.678386,23.7104931 L12.8793402,23.8032389 C12.8914285,23.8068999 12.9022333,23.8029875 12.9078286,23.7952264 L12.9118235,23.7811639 L12.8776777,23.1665331 C12.8752882,23.1545897 12.8674102,23.1470016 12.8583906,23.1452862 L12.8583906,23.1452862 Z M12.1430473,23.1473072 C12.1332178,23.1423925 12.1221763,23.1452606 12.1156365,23.1525954 L12.1099173,23.1665331 L12.0757714,23.7811639 C12.0751323,23.7926639 12.0828099,23.8018602 12.0926481,23.8045676 L12.108256,23.8032389 L12.3092106,23.7104931 L12.3186497,23.7024347 L12.3186497,23.7024347 L12.3225043,23.6906389 L12.340401,23.2611114 L12.337245,23.2485176 L12.337245,23.2485176 L12.3277531,23.2396597 L12.1430473,23.1473072 Z" id="MingCute" fill-rule="nonzero"></path>
                <path d="M13.5858,2 C14.1162,2 14.6249,2.21071 15,2.58579 L15,2.58579 L19.4142,7 C19.7893,7.37507 20,7.88378 20,8.41421 L20,8.41421 L20,20 C20,21.1046 19.1046,22 18,22 L18,22 L6,22 C4.89543,22 4,21.1046 4,20 L4,20 L4,4 C4,2.89543 4.89543,2 6,2 L6,2 Z M12,4 L6,4 L6,20 L18,20 L18,10 L13.5,10 C12.6716,10 12,9.32843 12,8.5 L12,4 Z M11.2071,12.1729 C11.5976,12.5634 11.5976,13.1966 11.2071,13.5871 L9.79289,15.0013 L11.2071,16.4155 C11.5976,16.8061 11.5976,17.4392 11.2071,17.8298 C10.8166,18.2203 10.1834,18.2203 9.79289,17.8298 L7.67157,15.7084 C7.28105,15.3179 7.28105,14.6847 7.67157,14.2942 L9.79289,12.1729 C10.1834,11.7824 10.8166,11.7824 11.2071,12.1729 Z M14.2071,12.1729 L16.3284,14.2942 C16.719,14.6847 16.719,15.3179 16.3284,15.7084 L14.2071,17.8298 C13.8166,18.2203 13.1834,18.2203 12.7929,17.8298 C12.4024,17.4392 12.4024,16.8061 12.7929,16.4155 L14.2071,15.0013 L12.7929,13.5871 C12.4024,13.1966 12.4024,12.5634 12.7929,12.1729 C13.1834,11.7824 13.8166,11.7824 14.2071,12.1729 Z M14,4.41421 L14,8 L17.5858,8 L14,4.41421 Z" id="形状结合" fill="#09244B"></path>
            </g>
        </g>
    </g>
</svg>

<svg xmlns="http://www.w3.org/2000/svg" width="24" height="24"><g fill="none" fill-rule="nonzero"><path d="M24 0v24H0V0h24ZM12.593 23.258l-.011.002-.071.035-.02.004-.014-.004-.071-.035c-.01-.004-.019-.001-.024.005l-.004.01-.017.428.005.02.01.013.104.074.015.004.012-.004.104-.074.012-.016.004-.017-.017-.427c-.002-.01-.009-.017-.017-.018Zm.265-.113-.013.002-.185.093-.01.01-.003.011.018.43.005.012.008.007.201.093c.012.004.023 0 .029-.008l.004-.014-.034-.614c-.003-.012-.01-.02-.02-.022Zm-.715.002a.023.023 0 0 0-.027.006l-.006.014-.034.614c0 .012.007.02.017.024l.015-.002.201-.093.01-.008.004-.011.017-.43-.003-.012-.01-.01-.184-.092Z"/><path fill="#09244B" d="M13.586 2A2 2 0 0 1 15 2.586L19.414 7A2 2 0 0 1 20 8.414V20a2 2 0 0 1-2 2H6a2 2 0 0 1-2-2V4a2 2 0 0 1 2-2ZM12 4H6v16h12V10h-4.5A1.5 1.5 0 0 1 12 8.5V4Zm-.793 8.173a1 1 0 0 1 0 1.414l-1.414 1.414 1.414 1.415a1 1 0 0 1-1.414 1.414l-2.121-2.122a1 1 0 0 1 0-1.414l2.12-2.121a1 1 0 0 1 1.415 0Zm3 0 2.121 2.121a1 1 0 0 1 0 1.414l-2.12 2.122a1 1 0 0 1-1.415-1.414L14.207 15l-1.414-1.414a1 1 0 0 1 1.414-1.414ZM14 4.414V8h3.586L14 4.414Z"/></g></svg>
